assets/sonr-icons/report.svg

<svg xmlns="http://www.w3.org/2000/svg" width="24" height="24" fill="none"><path fill="currentColor" d="M7 2a1 1 0 0 0-1 1v17H5a1 1 0 0 0 0 2h4a1 1 0 0 0 0-2H8V3a1 1 0 0 0-1-1m3 12.5c0 .833.678 1.5 1.502 1.5h6.996c1.142 0 1.87-1.228 1.311-2.23L17.707 10l2.102-3.769C20.368 5.229 19.64 4 18.498 4h-6.996a1.5 1.5 0 0 0-1.501 1.5z"/></svg>

<svg xmlns="http://www.w3.org/2000/svg" width="24" height="24" fill="none" viewBox="0 0 24 24"><path fill="#000" d="M7 2C6.448 2 6 2.448 6 3V20H5C4.448 20 4 20.448 4 21C4 21.552 4.448 22 5 22H9C9.552 22 10 21.552 10 21C10 20.448 9.552 20 9 20H8V3C8 2.448 7.552 2 7 2ZM10 14.5C10 15.333 10.678 16 11.502 16H18.498C19.64 16 20.368 14.772 19.809 13.77L17.707 10L19.809 6.231C20.368 5.229 19.64 4 18.498 4H11.502C10.678 4 10.001 4.667 10.001 5.5V14.5H10Z"/></svg>
